X:1
T:On the Birthday of the Lord
T:John Bacchus Dykes (1823-1876)
T:On the Birthday of the Lord
T:Public Domain
T:Public Domain
C:John Bacchus Dykes (1823-1876)
Z:Public Domain
%%score ( 1 2 ) ( 3 4 )
L:1/8
M:4/4
K:D
V:1 treble 
V:2 treble 
V:3 bass 
V:4 bass 
V:1
 D4 (F2 G2) | A4 A4 | (B2 c2) d4 | d8 | [DA]4 (B,2 C2) | (B2 A2) (G2 F2) | [DG]4 [CA]4 | [DF]8 | %8
w: 1.~On the *|the Lord|joy * in|And|sing in *|est * tone, *|be to|God|
w: 2.~These good *|gel told|shep- * herds|Told|of the *|ior’s * birth, *|of the|joy|
w: 3.~Born is *|u- el,|nounced * by|He,|pro- phets *|at- * test, *|from His|Fa-|
w: 4.~Born to- *|the Child,|Ma- * ry|Born|King and *|we * own; *|be to|God|
 D4 (F2 G2) | A4 (F2 E2) | (B2 c2) [Dd]4 | [Dd]8 | [DA]4 [FB]4 | [Fc]6 [Fc]2 | [Fc]4 [^Ec]4 | %15
w: a- lone, *|to God *||||||
w: for earth, *|the joy *||||||
w: ther’s breast, *|His Fa- *||||||
w: a- lone, *|to God *||||||
 [Fc]8 | [Ac]4 (^G2 F2) | (E2 A2) ([Bd]2 [Ac]2) | [AB]4 [^GB]4 | A8 || %20
w: |||||
w: |||||
w: |||||
w: |||||
[M:3/2]"^Refrain" [FA]8 [FB]4 | [FA]8 [DF]4 | [FA]4 [FB]8 | F8 (A4 A4 ^G2 F2) [Gd]4 | [Ac]8 [FB]4 | %25
w: |||||
w: |||||
w: |||||
w: |||||
 [EA]8 [DB]4 | [CA]12 | [DA]8 [EA]4 | [Fd]8 [Fd]4 | ([Gd]12- | d4 c4 B4) | [FA]8 [DF]4 | %32
w: |||||||
w: |||||||
w: |||||||
w: |||||||
 [CE]8 [CA]4 | D12 |] %34
w: ||
w: ||
w: ||
w: ||
V:2
 D4 F2 G2 | A4 A4 | B2 c2 d4 | d8 | x4 B4 | D4 D4 | x8 | x8 | D4 F2 G2 | A4 A4 | D4 x4 | x8 | x8 | %13
w: birth- day of|An- gels|glad ac- cord,|they|sweet-|Glo- ry|||Glo- ry be|a- lone.||||
w: news an an-|To the|by their fold,|them|Sav-|Told them|||Told them of|for earth.||||
w: now Em- man-|He, an-|Gab- ri- el,|Whom|old|Com- eth|||Com- eth from|ther’s breast.||||
w: day is Christ|Born of|un- de- filed,|the|Lord|Glo- ry|||Glo- ry be|a- lone.||||
 x8 | x8 | x8 | x4 d4 | e8 | x8 | A8 ||[M:3/2] x12 | x12 | x12 | A12 d8 x4 | x12 | x12 | x12 | %27
w: ||||||||||||||
w: ||||||||||||||
w: ||||||||||||||
w: ||||||||||||||
 x12 | x12 | x12 | G12 | x12 | x12 | D12 |] %34
w: |||||||
w: |||||||
w: |||||||
w: |||||||
V:3
 D,4 (F,2 G,2) | A,4 A,4 | (B,2 C2) D4 | D8 | [F,D]4 G,4 | [F,A,]4 [F,D]4 | (=C2 B,2) A,2 G,2 | %7
w: ~ ~ *|~ ~|~ * ~|~|~ ~|~ ~|~ * ~ ~|
 [D,A,]8 | D,4 (F,2 G,2) | A,4 (D2 C2) | [B,D]4 ([A,C]2 [G,B,]2) | [F,A,]8 | %12
w: ~|~ ~ *|~ ~ *|~ God *|is|
 ([F,A,]2 [E,G,]2) (F,2 ^G,2) | [C,A,]6 [C,A,]2 | [C,^G,]4 [C,G,]4 | [F,A,]8 | [F,A,]4 (E,2 D,2) | %17
w: born * of *|den fair,|Ma- ry|doth|the Sav- *|
 [C,E]4 [D,F]4 | (B,2 C2) (D2 E2) | [A,C]8 ||[M:3/2] [D,D]8 [B,,D]4 | [D,D]8 [D,A,]4 | D4 [B,D]8 | %23
w: bear; Ma-|ry * ev- *|Ma-|ry ev-|er pure.||
 D8 ([CE]4 [B,D]8) [B,D]4 | (A,4 C,4) [D,D]4 | [E,C]8 [E,^G,]4 | (A,8 G,4) | [D,F,]8 [D,G,]4 | %28
w: |||||
 [D,A,]8 [D,^A,]4 | ([G,,B,]12- | B,4 C4 D4) | [A,,D]8 [A,,A,]4 | [A,,G,]8 [A,,G,]4 | [D,F,]12 |] %34
w: ||||||
V:4
 D,4 F,2 G,2 | A,4 A,4 | B,2 C2 D4 | x8 | x4 G,4 | x8 | E,4 E,4 | x8 | D,4 F,2 G,2 | A,4 D4 | x8 | %11
w: ~ ~ ~|~ ~|~ ~ ~||~||~ ~||~ ~ ~|~ ~||
 x8 | x4 D,4 | x8 | x8 | x8 | x4 A,4 | x8 | E,4 E,4 | x8 ||[M:3/2] x12 | x12 | D4 x8 | D8 x16 | %24
w: |mai-||||ior||er pure,||||||
 E8 x4 | x12 | A,,12 | x12 | x12 | x12 | G,,12 | x12 | x12 | x12 |] %34
w: ||||||||||

